X:391
T:B391-  The Rich Merchantman
Q:1/4=120
L:1/4
M:6/4
K:Dm
A|B3/2c/dd2c|(B3B2)d|c3/2B/AB2(A/G/)|(^F3F2)":s:"B|\
F3/2E/DD3/2C/B,|D3/2E/DB3|G3F3/2E/D|G2F":s:"D2|]

